X:1
T:Beautiful Lilies
T:Beautiful Lilies
T:Joseph Lincoln Hall
T:Alice Jean Cleator, 1900
T:Public Domain Courtesy of the Cyber Hymnal™
T:Public Domain Courtesy of the Cyber Hymnal™
C:Joseph Lincoln Hall
Z:Public Domain
Z:Courtesy of the Cyber Hymnal™
%%score ( 1 2 ) ( 3 4 )
L:1/8
Q:1/4=90
M:6/8
K:Bb
V:1 treble 
V:2 treble 
V:3 bass 
V:4 bass 
V:1
"^Alto or Baritone Solo" (z z) [B,D] x4 | z z x5 | (z z) [EG] x4 | [B,D]6 | (z z) [EG] x4 | %5
w: 1.~Beau-||ti-||ful|
w: 2.~Lil-||ies||of|
w: 3.~E’en||as||our|
 z z x6 | (z z) [B,C] x4 | z [A,C][B,D] [CE][B,D][A,C] | z z [EF] x4 | z z x6 | (z B,2) [B,C] x2 | %11
w: |lil-||ies,||* White|
w: |Eas-||ter,||* Blos-|
w: |Fa-||ther||* From|
 F6 | (z z) [A,C] x4 | B,3 !fermata![B,_DB]3 |"^riten." (B2 F) E2 C | [F,B,]6 || %16
w: as|the|* snow,|Speak * to us|soft-|
w: soms|of|* spring,|Wake * from their|slum-|
w: win-|ter’s|* night|Wak- * eth the|li-|
"^Refrain" B3 ([DF][DF]) B2 ([DF][DFc]) | d3 ([DF][DF]) B3 ([DF][DF]) | B3 A2 [EG] | F6 | %20
w: ly Of * long a- *|go; Tell- * ing of *|* Je- sus,|Who|
w: ber Glad- * ness to *|bring. O * they are *|* ev- er|Hea-|
w: lies To * sum- mer’s *|light, So * His dear *|* child- ren|His|
 B3 B2 [Dc] | d3 B3 | A3 ([A,CE][A,CE]) G2 [A,CE][A,CE] | [B,D]6 | d3 ([FB][FB]) e2 [GB][FBd] | %25
w: from the grave|* Rose|all vic- * tor- ious, Might-||y to * save. * *|
w: ven’s bright sign|* Of|life be- * yond us, End-||less, di- * vine. Beau- ti-|
w: love will keep,|* Wak-|ing them * soft- ly From||death’s long * sleep. * *|
 d3 ([_EG][_EG]) G3 | A3 ([EF][EF]) d2 [FA][EFAc] | c3 ([DF][DF]) B3 ([DF][DF]) | B3 A2 [=CG] | %29
w: ||||
w: * ful * lil-|ies, White * as the snow,|* Speak * to us *|* soft- ly|
w: ||||
 F3 d2 [DF][DFd] | d3 ([EG][EG]) c3 ([EF][EF]) | B3- [DF][EG] [DFB]3 |] %32
w: |||
w: Of long a- go;|* Beau- * ti- ful *|* lil- ies, Beau-|
w: |||
V:2
 (D2 B, B,) C2 (B, | F2 .B, B,)(E .B,B,) | (F2 .C C) E2 C | x6 | (G2 .E E) G2 (E | %5
 F2 .D D) (D2 .B,B,) | (C2 .B, B,) D2 B, | F6 | (A2 .E E) G2 (E | B2 .D D) (F2 .DD) | %10
 (G2 .E E) B,2 | (CCDEDC) | (E2 .A, A,) D2 A, | B,3 x3 | [B,D]3 A,3 | x6 || ([DF] [DF]) x7 | %17
 [DF] [DF] x8 | (EEE) (E E) x | (DDD DDD) | (DDD) D D x | (DDD) (DDD) | [A,CE] [A,CE] x7 | x6 | %24
 [FB] [GB] x7 | ([=EG]EE =E) x4 | [EF] [FA] x7 | [DF] [DF] x8 | (^CCC) (C C) x | (DDD) [DF] x3 | %30
 [=EG] [_EF] x8 | [DF] x7 |] %32
V:3
 F,3 =E,2 F, x | G,3 F,3 x | F,6 x | (B,,D,F,G,F,D,) | B,3 B,2 B, x | B,3 F,3 x2 | =E,3 F,2 E, x | %7
 [F,,F,]6 | C3 B,2 A, x | B,3 B,3 x2 | B,3 G,.G,G, | (^F,F,G,A,G,F,) | z3 [E,F,]3 x | %13
 F,3 !fermata![_G,,_G,]3 | [B,,F,]3 F,2 E, | [B,,D,]6 || %16
 ([B,,F,B,][B,,F,B,][B,,F,B,]) [B,,F,B,]([B,,F,B,][B,,F,B,]) x3 | %17
 ([B,,F,B,][B,,F,B,][B,,F,B,]) ([B,,F,B,][B,,F,B,][B,,F,B,]) x4 | %18
 ([E,G,B,][E,G,B,][E,G,B,]) ([E,G,B,][E,G,B,])[E,G,B,] | %19
 ([B,,F,B,][B,,F,B,][B,,F,B,][B,,F,B,][B,,F,B,][B,,F,B,]) | %20
 ([B,,F,B,][B,,F,B,][B,,F,B,]) [B,,F,B,]([B,,F,B,][B,,F,B,]) | %21
 ([B,,F,B,][B,,F,B,][B,,F,B,]) ([B,,F,B,][B,,F,B,][B,,F,B,]) | %22
 ([F,,F,][F,,F,][F,,F,]) ([F,,F,][F,,F,])[F,,F,] x3 | (B,,D,F,G,F,D,) | %24
 ([B,,B,][B,,B,][B,,B,]) ([B,,B,][B,,B,])[B,,B,] x3 | %25
 ([C,G,B,][C,G,B,][C,G,B,]) ([C,G,B,][C,G,B,][C,G,B,]) x2 | %26
 ([F,C][F,C][F,C]) ([F,A,][F,A,])[F,A,] x3 | %27
 ([B,,F,B,][B,,F,B,][B,,F,B,]) ([B,,F,B,][B,,F,B,][B,,F,B,]) x4 | %28
 ([=E,G,B,][E,G,B,][E,G,B,]) ([E,G,B,][E,G,B,])[E,G,B,] | %29
 ([F,B,][F,B,][F,B,]) ([F,B,][F,B,])[F,B,] x | ([C,G,B,][C,G,B,][C,G,B,]) ([F,A,][F,A,][F,A,]) x4 | %31
 ([B,,B,][B,,B,][B,,B,] [B,,B,]3) x2 |] %32
V:4
 B,,6 x | B,,6 x | F,,3 A,,3 x | x6 | E,6 x | B,,6 x2 | C,4 x3 | x6 | F,6 x | B,,6 x2 | E,6 | D,6 | %12
 F,3 x4 | D,2 B,, x3 | x3 F,,3 | x6 || x9 | x10 | x6 | x6 | x6 | x6 | x9 | x6 | x9 | x8 | x9 | %27
 x10 | x6 | x7 | x10 | x8 |] %32

